X: 1
T:The one in 7/8
M:7/8
L:1/8
Q:180
K:Eb
g g f 
|: e e d c B c d | e e f g a g f | e e f e2 d B |1 c c d c g g f :|2 c c d c2 c c   
|: f f f f2  e f | g g f e2  d c | d d f e2 d B |1 c c B c2  c c :|2 c c B c  d e f 
|: g g f e2  g2  | f f e c d e f | g g f e2 d B |1 c c B c d e f :|2 c c B c4 ||
